X:315
T:White Cockade (polka), The
B:CRE2.115 (Cnota BÃÂÃÂÃÂÃÂ¡n)
F:file ID: cre.2/315white_c
Q:100
L:1/8
M:2/4
R:polka
K:G
g/e/|dB B/A/G/A/|BB Bg/e/|dB B/A/G/A/|BA A>z|
"5"Bz B/A/G/A/|Bd gg/a/|bg e/f/g/e/|dB AG/A/|
"9"dB B/A/G/A/|BB Bg/e/|dB B/A/G/E/|DG AG/A/|
"13"B2 B/A/G/A/|Bd gg/a/|b/g/g/g/ e/f/g/e/|dB BA||
|:G/A/|"17"Bd gg|Bd d2|Bd gg|d/A/A AG/A/|
"21"BB/d/ B/A/G/A/|Bd gg/a/|b/g/g/g/ e/f/g/e/|dB (3A/B/A/:|

%%%

